resources/images/roof.svg

<svg xmlns="http://www.w3.org/2000/svg" width="900" height="450" viewBox="0 0 900 450"><path fill="#C54F27" d="M650.391 212.102v25.128l76.151-31.163-17.008-17.117-59.143 23.152m108.192 26.115l-16.57-16.679-91.622 41.256v25.567l91.733-42.574 16.459-7.57m-16.57-16.679l-15.471-15.471-76.151 31.163v25.564l91.622-41.256m-405.659 24.908l-2.304-28.53-152.52-39.611-23.373 18.105 178.197 50.036m1.537 18.655l-1.537-18.654-178.196-50.036-15.691 12.29 22.274 6.583 17.227 5.047 23.262 6.692 23.152 6.805 32.151 9.327 28.529 8.447 28.638 8.339 18.325 5.377 1.866-.217m141.875-39.284l-2.413-17.666-140.889 38.294h-.109l1.537 18.654.109 1.206 5.706-1.755 39.063-11.084 29.736-8.448 29.626-8.448 37.634-10.753m-2.413-17.665l2.413 17.666 72.092 16.24 9.546-17.447-83.283-16.789-.768.33m0-.11l.768-.22 83.283 16.789 12.839-23.591-100.399-17.886 3.509 24.908M323.407 83.393l-1.097-14.484-16.021 12.399 17.118 2.085m150.436 99.74l-2.194-.329-137.489 35.113h-.109l2.304 28.53h.109l140.889-38.294v-.11l-3.51-24.91m-3.732-26.553l3.511 25.675.221.878 100.399 17.886 11.959-21.727-116.09-22.712m-142.315-17.447l1.866 23.811 137.597-27.103-2.743-19.202-.66-.109-136.06 22.603m4.06 49.706h-.11l2.305 29.077h.109l137.489-35.112 1.974-.549-3.511-25.675-138.256 32.259m-2.194-25.895l2.084 25.895h.11l138.255-32.259-2.853-20.739-137.596 27.103m-6.255-79.551l1.207 16.13 36.649-4.28-9.547-14.704-28.309 2.854m48.828 28.748l-10.973-16.898-36.649 4.28 1.646 18.982 45.976-6.364m-21.287-45.756l-28.638 2.523 1.097 14.484 28.309-2.854-.768-1.536V66.385m-44.659 14.922l-16.678 13.167 35.002 5.048-1.207-16.13-17.117-2.085m-79.113 61.557l-20.957 16.239 125.526 29.736-2.084-25.895-102.485-20.08m62.435-48.39l-18.435 14.265 55.083 9.766-1.646-18.982-35.002-5.049m-18.435 14.265l-21.726 16.788 78.345 13.606-1.537-20.628-55.082-9.766m-21.725 16.788l-22.274 17.337 102.485 20.08-1.866-23.811-78.345-13.606m-43.232 33.577l-24.688 19.202 152.52 39.611-2.305-29.077-125.527-29.736m503.315 29.846l-17.557-17.557-27.102 7.681 14.704 19.421-11.521 4.828H650.39v8.778l59.144-23.151m-190.376-81.637l93.816-15.582-11.301-11.192-197.18 27.103-1.426.22-30.175 5.047-.658-.767-45.976 6.364 1.537 20.628 136.06-22.604.66-.11-2.085-15.581 56.728 6.474m70.335-39.063l-11.959-11.96-173.04 18.434v15.472L589.493 68.25m46.634 72.639l15.033 20.19 24.03-6.693-18.653-18.764-20.41 5.267m15.033 20.19l13.716 17.996 27.102-7.681-16.787-17.007-24.031 6.692m-64.959 18.214l10.314-18.983-129.257-24.469 2.853 20.739 116.09 22.713m16.022-29.407l.219-.329 5.268-9.436-143.193-23.482 2.743 19.202 129.257 24.469 5.706-10.424m18.762-28.638l-3.513.658-9.764 18.215-5.268 9.436-.219.329-5.707 10.424-10.314 18.983-11.959 21.727-12.839 23.591-9.546 17.447 7.899-2.634 7.902-2.634 18.653-33.576.985-1.976 11.084-19.641 4.06-7.461 13.058-23.262 2.962-5.486 2.743-4.828 1.428 1.865 45.427 60.898 11.521-4.828-14.704-19.421-13.716-17.996-15.033-20.19-15.14-19.64m-3.073-2.634l1.428.11 1.646 2.523 17.117-4.169-12.51-12.509-47.949 9.546 40.268 4.499m38.625 17.008l-18.435-18.543-17.117 4.169 15.142 19.641 20.41-5.267m-137.379-28.309l58.485 6.803 47.949-9.546-12.618-12.838-93.816 15.581m58.486 6.803l-58.485-6.803-56.728-6.474 2.085 15.581v.22l143.193 23.482 9.764-18.215.439-3.292-40.268-4.499m-.11-57.826l-9.438-9.546-163.602 14.812v13.167l173.04-18.433m24.14 24.249L589.493 68.25 404.494 90.196v17.446l197.18-27.103z"/><path fill="#C4C4C4" d="M205.231 302.956l23.152 9.215v-39.28l-23.152-7.79v37.855m-23.262-45.867l23.262 8.012v-38.077l-23.262-6.692v36.757m0 0v36.759l23.262 9.108v-37.855l-23.262-8.012m106.983 35.443l-28.418-9.767v39.611l28.418 11.082v-40.926m-28.418-49.377v39.61l28.418 9.767.11-40.93-28.528-8.447m-32.151 29.736v-39.063l-23.152-6.805V265.1l23.152 7.791m89.098 29.296l.219-42.245-28.638-8.339-.11 40.93 28.529 9.654m67.811 31.71l28.419-10.094-.658-39.283-29.078 9.108 1.317 40.269m-67.92 10.644l.109-42.354-28.529-9.654v40.927l28.42 11.081m124.759-69.347l-29.078 9.326.658 39.283 28.42-10.205v-38.404m-29.626-30.174l.549 39.501 29.078-9.326v-38.623l-29.627 8.448m.549 39.501l-.549-39.501-29.736 8.448 1.208 40.161 29.077-9.108m219.672-64.19l-24.14 9.436v35.113l24.14-10.315v-34.234m0 68.579v-34.346l-24.14 10.315v35.112l24.14-11.081m-24.14-24.03l-24.141 10.314v35.991l24.141-11.193V264.88m0-35.113l-24.141 9.437v35.991l24.141-10.314v-35.114z"/><path fill="#E8DFBE" d="M479.766 225.817v107.642l79.991 25.566V239.424l-7.899 2.634-72.092-16.241m-143.741 39.501l-18.325-5.377-.219 42.245-.109 42.354-28.42-11.082-28.418-11.082v-79.221l-32.151-9.327v78.343l-23.152-9.215-23.262-9.108v-73.517l-17.227-5.047 1.756 84.49.22 11.191 176.988 66.933V264.552L338 266.307l-.109-1.206-1.866.217m106.106-28.747v77.027l-28.42 10.205-28.419 10.094-1.316-40.269-1.208-40.161-39.063 11.084v113.346l136.06-44.438V225.817l-37.634 10.754M376.953 39.502l-4.06 7.241h31.601l-13.496-7.241h-14.045m-4.06 7.241l4.06-7.241h-14.155l-11.85 7.241h21.945m-21.945 0V79.004l.768 1.536 9.547 14.704 10.973 16.898h.658V46.743h-21.946m53.546 27.981V46.743h-31.601v65.398l30.175-4.28 1.426-.22V74.724m197.947 99.412l-4.06 7.461-11.084 19.641-.985 1.976-18.653 33.576-7.902 2.634v119.602l182.367-81.637v-31.602l-91.733 42.574v-85.037l-34.892-52.449-13.058 23.261m-17.996 65.067l24.141-9.437 24.14-9.436v68.579l-24.14 11.082-24.141 11.193v-71.981z"/><path fill="#D7C78E" d="M618.461 145.388l-2.962 5.486 34.892 52.449h17.668l-45.427-60.898-4.171 2.963z"/><g><path fill="none" stroke="#000" stroke-linecap="round" stroke-linejoin="round" d="M675.19 154.386l1.535-.33m-212.209-37.417l143.193 23.482m30.394-23.042l-17.117 4.169-3.513.658m18.654 18.983l20.41-5.267m-54.314 14.264l.219-.329m-5.926 10.753l-129.257-24.469m118.942 43.452l-116.09-22.713m155.482-52.011l-47.949 9.546m-58.486-6.802l93.816-15.582m38.186 69.348l24.03-6.693m16.788 17.007l-27.102 7.681M404.494 74.724l173.04-18.434m-205.299 55.851h.658l30.175-4.28M289.611 94.474l35.002 5.048m-1.206-16.129l-17.118-2.085m23.373 81.636l-102.485-20.08m242.934 13.716l-138.255 32.259h-.11m2.305 29.078h.109l137.489-35.112 1.974-.549m-224.172-56.729l78.345 13.606m-3.183-39.611l36.649-4.28m10.973 16.899l-45.976 6.364-55.083-9.766m193.34 7.68l-.66.11.66.109m2.743 19.203l-137.597 27.103m141.986 19.86l2.194.329m-146.046-44l136.06-22.604m-112.14-35.99l-28.309 2.854m8.339 105.446L206.22 159.103m271.133 49.049l.768-.33m-4.278-24.689l100.399 17.886m-237.888 45.427h.109l140.889-38.294m-319.194-11.741l178.196 50.036m-2.303-28.53l-152.52-39.611m-24.689 17.776l1.316.329m568.384 9.655l-76.151 31.163m0 25.565l91.622-41.256M404.494 107.642l197.18-27.103M589.493 68.25L404.494 90.196m73.626 117.626l83.283 16.789m88.988-12.509l59.144-23.152"/></g><g><path fill="none" stroke="#000" stroke-width="2" stroke-linecap="round" stroke-linejoin="round" d="M404.494 61.556l163.602-14.813 9.438 9.546 11.959 11.961 12.181 12.289 11.301 11.192 12.618 12.838 12.51 12.509 18.435 18.543 18.653 18.764m-57.279-35.771l-40.269-4.499-58.485-6.803-56.728-6.474 2.085 15.581v.22m152.958 5.267l-9.764 18.215m10.203-21.507l1.428.11 1.646 2.523m-1.646-2.522l-1.867 3.181m18.654 18.983l-15.142-19.641m-2.524 24.14l2.743-4.828 1.428 1.865 45.427 60.898 11.521-4.828-14.704-19.421-13.716-17.996-15.033-20.19m-20.628 9.986l2.962-5.486m-10.752-5.267l-5.268 9.436m-5.925 10.753l5.707-10.424m13.276.988l-13.058 23.262-4.06 7.461-11.084 19.641-.985 1.976-18.653 33.576-7.902 2.634v119.602m182.367-81.637v-31.602l-91.733 42.574v-85.037l-34.892-52.449m-29.298 28.418l10.314-18.983m-129.256-24.469l2.853 20.739m116.089 22.713l-11.959 21.727-12.839 23.591-9.546 17.447 7.899-2.634m115.434-85.038l16.787 17.007 17.557 17.557 17.008 17.117 15.471 15.471 16.57 16.679-16.459 7.57m-583.966-49.376l23.373-18.105 24.688-19.202 20.957-16.239 22.274-17.337 21.726-16.788 18.435-14.265 16.678-13.167 16.021-12.399 28.638-2.523V46.743l11.85-7.241h28.2l13.496 7.241v27.98m-53.546-8.338v12.619l.768 1.536 9.547 14.704 10.973 16.898m.657-.001V46.743h-21.945m21.945 0l4.06-7.241m26.115 68.359l1.426-.22V74.724m-31.601 37.417v.767l30.175-5.047m-30.833 4.28l.658.767m-46.634 5.597l-1.646-18.982-1.207-16.13m6.256 79.551l2.084 25.895 2.305 29.077m136.06-61.336l3.511 25.675m-143.96-19.311l-1.866-23.811-1.537-20.628m138.257-1.866l2.743 19.202m6.363 46.414l.221.878m-69.349-136.39h-31.601m-49.486 36.65l-1.097-14.484m155.043 139.243v-.11l-3.51-24.908m3.51 25.018l2.413 17.666 72.092 16.24m-167.882 51.571l29.078-9.108-.549-39.501-29.736 8.448 1.207 40.161 1.316 40.269 28.419-10.094-.658-39.283 29.078-9.326v-38.623l-29.626 8.448m67.261-19.203l-37.634 10.754m-104.241 28.53l-1.537-18.654m-178.196-50.036l-15.691 12.29 22.274 6.583 17.227 5.047 23.262 6.692 23.152 6.805 32.151 9.327 28.529 8.447 28.638 8.339 18.325 5.377m1.866-.217l.109 1.206 5.706-1.755 39.063-11.084m-46.415-7.022l-2.304-28.53m-45.098 115.543l28.42 11.082.109-42.354-28.529-9.654v40.926l-28.418-11.082v-79.221m219.232 90.303v32.15m-37.635-90.415v38.404l-28.42 10.205m-70.005 86.246V264.552m-176.988 46.413l-.22-11.191-.11 53.108m313.378-127.065v107.642m79.991 25.566V389.2m-242.276-87.013l.219-42.245m-89.317 12.949v-39.063m32.151 48.938l28.418 9.767.11-40.93m-107.093 5.486v36.759l23.262 9.108v-37.855l-23.262-8.012v-36.758m23.262 6.692V265.1l23.152 7.79v39.28l-23.152-9.215m-38.733-3.182l-1.756-84.49m577.382 62.106v23.262m-74.065-97.328h-17.668m-41.805 96.669l-24.141 11.193v-71.982l24.141-9.437 24.14-9.436v68.579l-24.14 11.083V264.88l-24.141 10.314m48.281-20.63l-24.14 10.315v-35.113"/></g></svg>

<?xml version="1.0" encoding="utf-8"?>
<!-- Generator: Adobe Illustrator 16.0.0, SVG Export Plug-In . SVG Version: 6.00 Build 0)  -->
<!DOCTYPE svg PUBLIC "-//W3C//DTD SVG 1.1//EN" "http://www.w3.org/Graphics/SVG/1.1/DTD/svg11.dtd">
<svg version="1.1" id="Layer_1" xmlns="http://www.w3.org/2000/svg" xmlns:xlink="http://www.w3.org/1999/xlink" x="0px" y="0px"
	 width="900px" height="450px" viewBox="0 0 900 450" enable-background="new 0 0 900 450" xml:space="preserve">
<g transform="matrix( 1, 0, 0, 1, 0,0) ">
	<g>
		<g id="Layer0_0_FILL">
			<path fill="#C54F27" d="M650.391,212.102v25.128l76.151-31.163l-17.008-17.117L650.391,212.102 M758.583,238.217l-16.57-16.679
				l-91.622,41.256v25.567l91.733-42.574L758.583,238.217 M742.013,221.538l-15.471-15.471l-76.151,31.163v25.564L742.013,221.538
				 M336.354,246.446l-2.304-28.53l-152.52-39.611l-23.373,18.105L336.354,246.446 M337.891,265.101l-1.537-18.654l-178.196-50.036
				l-15.691,12.29l22.274,6.583l17.227,5.047l23.262,6.692l23.152,6.805l32.151,9.327l28.529,8.447l28.638,8.339l18.325,5.377
				L337.891,265.101 M479.766,225.817l-2.413-17.666l-140.889,38.294h-0.109l1.537,18.654l0.109,1.206l5.706-1.755l39.063-11.084
				l29.736-8.448l29.626-8.448L479.766,225.817 M477.353,208.152l2.413,17.666l72.092,16.24l9.546-17.447l-83.283-16.789
				L477.353,208.152 M477.353,208.042l0.768-0.22l83.283,16.789l12.839-23.591l-100.399-17.886L477.353,208.042 M323.407,83.393
				l-1.097-14.484l-16.021,12.399L323.407,83.393 M473.843,183.133l-2.194-0.329L334.16,217.917h-0.109l2.304,28.53h0.109
				l140.889-38.294v-0.11L473.843,183.133 M470.111,156.58l3.511,25.675l0.221,0.878l100.399,17.886l11.959-21.727L470.111,156.58
				 M327.796,139.133l1.866,23.811l137.597-27.103l-2.743-19.202l-0.66-0.109L327.796,139.133 M331.856,188.839h-0.11l2.305,29.077
				h0.109l137.489-35.112l1.974-0.549l-3.511-25.675L331.856,188.839 M329.662,162.944l2.084,25.895h0.11l138.255-32.259
				l-2.853-20.739L329.662,162.944 M323.407,83.393l1.207,16.13l36.649-4.28l-9.547-14.704L323.407,83.393 M372.235,112.141
				l-10.973-16.898l-36.649,4.28l1.646,18.982L372.235,112.141 M350.948,66.385l-28.638,2.523l1.097,14.484l28.309-2.854
				l-0.768-1.536V66.385 M306.289,81.307l-16.678,13.167l35.002,5.048l-1.207-16.13L306.289,81.307 M227.176,142.864l-20.957,16.239
				l125.526,29.736l-2.084-25.895L227.176,142.864 M289.611,94.474l-18.435,14.265l55.083,9.766l-1.646-18.982L289.611,94.474
				 M271.176,108.739l-21.726,16.788l78.345,13.606l-1.537-20.628L271.176,108.739 M249.451,125.527l-22.274,17.337l102.485,20.08
				l-1.866-23.811L249.451,125.527 M206.219,159.104l-24.688,19.202l152.52,39.611l-2.305-29.077L206.219,159.104 M709.534,188.95
				l-17.557-17.557l-27.102,7.681l14.704,19.421l-11.521,4.828h-17.668v8.778L709.534,188.95 M519.158,107.313l93.816-15.582
				l-11.301-11.192l-197.18,27.103l-1.426,0.22l-30.175,5.047l-0.658-0.767l-45.976,6.364l1.537,20.628l136.06-22.604l0.66-0.11
				l-2.085-15.581L519.158,107.313 M589.493,68.25L577.534,56.29l-173.04,18.434v15.472L589.493,68.25 M636.127,140.889
				l15.033,20.19l24.03-6.693l-18.653-18.764L636.127,140.889 M651.16,161.079l13.716,17.996l27.102-7.681l-16.787-17.007
				L651.16,161.079 M586.201,179.293l10.314-18.983l-129.257-24.469l2.853,20.739L586.201,179.293 M602.223,149.886l0.219-0.329
				l5.268-9.436l-143.193-23.482l2.743,19.202l129.257,24.469L602.223,149.886 M620.985,121.248l-3.513,0.658l-9.764,18.215
				l-5.268,9.436l-0.219,0.329l-5.707,10.424l-10.314,18.983l-11.959,21.727l-12.839,23.591l-9.546,17.447l7.899-2.634l7.902-2.634
				l18.653-33.576l0.985-1.976l11.084-19.641l4.06-7.461l13.058-23.262l2.962-5.486l2.743-4.828l1.428,1.865l45.427,60.898
				l11.521-4.828l-14.704-19.421l-13.716-17.996l-15.033-20.19L620.985,121.248 M617.912,118.614l1.428,0.11l1.646,2.523
				l17.117-4.169l-12.51-12.509l-47.949,9.546L617.912,118.614 M656.537,135.622l-18.435-18.543l-17.117,4.169l15.142,19.641
				L656.537,135.622 M519.158,107.313l58.485,6.803l47.949-9.546l-12.618-12.838L519.158,107.313 M577.644,114.116l-58.485-6.803
				l-56.728-6.474l2.085,15.581v0.22l143.193,23.482l9.764-18.215l0.439-3.292L577.644,114.116 M577.534,56.29l-9.438-9.546
				L404.494,61.556v13.167L577.534,56.29 M601.674,80.539L589.493,68.25L404.494,90.196v17.446L601.674,80.539z"/>
			<path fill="#C4C4C4" d="M205.231,302.956l23.152,9.215v-39.28l-23.152-7.79V302.956 M181.969,257.089l23.262,8.012v-38.077
				l-23.262-6.692V257.089 M181.969,257.089v36.759l23.262,9.108v-37.855L181.969,257.089 M288.952,292.532l-28.418-9.767v39.611
				l28.418,11.082V292.532 M260.534,243.155v39.61l28.418,9.767l0.11-40.93L260.534,243.155 M228.383,272.891v-39.063l-23.152-6.805
				v38.077L228.383,272.891 M317.481,302.187l0.219-42.245l-28.638-8.339l-0.11,40.93L317.481,302.187 M385.292,333.897
				l28.419-10.094l-0.658-39.283l-29.078,9.108L385.292,333.897 M317.372,344.541l0.109-42.354l-28.529-9.654v40.927
				L317.372,344.541 M442.131,275.194l-29.078,9.326l0.658,39.283l28.42-10.205V275.194 M412.505,245.02l0.549,39.501l29.078-9.326
				v-38.623L412.505,245.02 M413.054,284.521l-0.549-39.501l-29.736,8.448l1.208,40.161L413.054,284.521 M632.726,220.331
				l-24.14,9.436v35.113l24.14-10.315V220.331 M632.726,288.91v-34.346l-24.14,10.315v35.112L632.726,288.91 M608.586,264.88
				l-24.141,10.314v35.991l24.141-11.193V264.88 M608.586,229.767l-24.141,9.437v35.991l24.141-10.314V229.767z"/>
			<path fill="#E8DFBE" d="M479.766,225.817v107.642l79.991,25.566V239.424l-7.899,2.634L479.766,225.817 M336.025,265.318
				l-18.325-5.377l-0.219,42.245l-0.109,42.354l-28.42-11.082l-28.418-11.082v-39.611v-39.61l-32.151-9.327v39.063v39.28
				l-23.152-9.215l-23.262-9.108v-36.759v-36.758l-17.227-5.047l1.756,84.49l0.22,11.191l176.988,66.933V264.552L338,266.307
				l-0.109-1.206L336.025,265.318 M442.131,236.571v38.623v38.404l-28.42,10.205l-28.419,10.094l-1.316-40.269l-1.208-40.161
				l-39.063,11.084v113.346l136.06-44.438V225.817L442.131,236.571 M376.953,39.502l-4.06,7.241h31.601l-13.496-7.241H376.953
				 M372.893,46.743l4.06-7.241h-14.155l-11.85,7.241H372.893 M350.948,46.743v19.642v12.619l0.768,1.536l9.547,14.704
				l10.973,16.898h0.658V46.743H350.948 M404.494,74.724V61.556V46.743h-31.601v65.398l30.175-4.28l1.426-0.22V90.196V74.724
				 M602.441,174.136l-4.06,7.461l-11.084,19.641l-0.985,1.976l-18.653,33.576l-7.902,2.634v119.602l182.367-81.637v-31.602
				l-91.733,42.574v-25.567v-25.564v-25.128v-8.778l-34.892-52.449L602.441,174.136 M584.445,239.203l24.141-9.437l24.14-9.436
				v34.233v34.346l-24.14,11.082l-24.141,11.193v-35.991V239.203z"/>
			<path fill="#D7C78E" d="M618.461,145.388l-2.962,5.486l34.892,52.449h17.668l-45.427-60.898L618.461,145.388z"/>
		</g>
	</g>
	<g>
		<path id="Layer0_0_1_STROKES" fill="none" stroke="#000000" stroke-linecap="round" stroke-linejoin="round" d="M675.19,154.386
			l1.535-0.33 M464.516,116.639l143.193,23.482 M638.103,117.079l-17.117,4.169l-3.513,0.658 M636.127,140.889l20.41-5.267
			 M602.223,149.886l0.219-0.329 M596.516,160.31l-129.257-24.469 M586.201,179.293l-116.09-22.713 M625.593,104.569l-47.949,9.546
			 M519.158,107.313l93.816-15.582 M651.16,161.079l24.03-6.693 M691.978,171.393l-27.102,7.681 M404.494,74.724l173.04-18.434
			 M372.235,112.141h0.658l30.175-4.28 M289.611,94.474l35.002,5.048 M323.407,83.393l-17.118-2.085 M329.662,162.944
			l-102.485-20.08 M470.111,156.58l-138.255,32.259h-0.11 M334.051,217.917h0.109l137.489-35.112l1.974-0.549 M249.451,125.527
			l78.345,13.606 M324.613,99.522l36.649-4.28 M372.235,112.141l-45.976,6.364l-55.083-9.766 M464.516,116.419l-0.66,0.11
			l0.66,0.109 M467.259,135.841l-137.597,27.103 M471.648,182.804l2.194,0.329 M327.796,139.133l136.06-22.604 M351.716,80.539
			l-28.309,2.854 M331.746,188.839l-125.526-29.736 M477.353,208.152l0.768-0.33 M473.843,183.133l100.399,17.886 M336.354,246.446
			h0.109l140.889-38.294 M158.158,196.411l178.196,50.036 M334.051,217.917l-152.52-39.611 M156.842,196.082l1.316,0.329
			 M726.542,206.066l-76.151,31.163 M650.391,262.794l91.622-41.256 M404.494,107.642l197.18-27.103 M589.493,68.25L404.494,90.196
			 M478.12,207.822l83.283,16.789 M650.391,212.102l59.144-23.152"/>
	</g>
	<g>
		<path id="Layer0_0_2_STROKES" fill="none" stroke="#000000" stroke-width="2" stroke-linecap="round" stroke-linejoin="round" d="
			M404.494,61.556l163.602-14.813l9.438,9.546l11.959,11.961l12.181,12.289l11.301,11.192l12.618,12.838l12.51,12.509l18.435,18.543
			l18.653,18.764 M617.912,118.614l-40.269-4.499l-58.485-6.803l-56.728-6.474l2.085,15.581v0.22 M617.473,121.906l-9.764,18.215
			 M617.912,118.614l1.428,0.11l1.646,2.523 M619.34,118.725l-1.867,3.181 M636.127,140.889l-15.142-19.641 M618.461,145.388
			l2.743-4.828l1.428,1.865l45.427,60.898l11.521-4.828l-14.704-19.421l-13.716-17.996l-15.033-20.19 M615.499,150.874l2.962-5.486
			 M607.709,140.121l-5.268,9.436 M596.516,160.31l5.707-10.424 M615.499,150.874l-13.058,23.262l-4.06,7.461l-11.084,19.641
			l-0.985,1.976l-18.653,33.576l-7.902,2.634v119.602 M742.124,277.389v-31.602l-91.733,42.574v-25.567v-25.564v-25.128v-8.778
			l-34.892-52.449 M586.201,179.293l10.314-18.983 M467.259,135.841l2.853,20.739 M586.201,179.293l-11.959,21.727l-12.839,23.591
			l-9.546,17.447l7.899-2.634 M675.19,154.386l16.787,17.007l17.557,17.557l17.008,17.117l15.471,15.471l16.57,16.679l-16.459,7.57
			 M158.158,196.411l23.373-18.105l24.688-19.202l20.957-16.239l22.274-17.337l21.726-16.788l18.435-14.265l16.678-13.167
			l16.021-12.399l28.638-2.523V46.743l11.85-7.241h14.155h14.045l13.496,7.241v14.813v13.167 M350.948,66.385v12.619l0.768,1.536
			l9.547,14.704l10.973,16.898 M372.893,112.141V46.743h-21.945 M372.893,46.743l4.06-7.241 M403.068,107.861l1.426-0.22V90.196
			V74.724 M372.893,112.141v0.767l30.175-5.047 M372.235,112.141l0.658,0.767 M326.259,118.505l-1.646-18.982l-1.207-16.13
			 M329.662,162.944l2.084,25.895l2.305,29.077 M470.111,156.58l3.511,25.675 M329.662,162.944l-1.866-23.811l-1.537-20.628
			 M464.516,116.639l2.743,19.202 M473.622,182.255l0.221,0.878 M404.494,46.743h-31.601 M323.407,83.393l-1.097-14.484
			 M477.353,208.152v-0.11l-3.51-24.908 M477.353,208.152l2.413,17.666l72.092,16.24 M383.976,293.629l29.078-9.108l-0.549-39.501
			l-29.736,8.448L383.976,293.629l1.316,40.269l28.419-10.094l-0.658-39.283l29.078-9.326v-38.623l-29.626,8.448 M479.766,225.817
			l-37.634,10.754 M337.891,265.101l-1.537-18.654 M158.158,196.411l-15.691,12.29l22.274,6.583l17.227,5.047l23.262,6.692
			l23.152,6.805l32.151,9.327l28.529,8.447l28.638,8.339l18.325,5.377 M337.891,265.101l0.109,1.206l5.706-1.755l39.063-11.084
			 M336.354,246.446l-2.304-28.53 M288.952,333.459l28.42,11.082l0.109-42.354l-28.529-9.654V333.459l-28.418-11.082v-39.611v-39.61
			 M479.766,333.459v32.15 M442.131,275.194v38.404l-28.42,10.205 M343.706,410.049v-32.151V264.552 M166.718,310.965l-0.22-11.191
			l-0.11,53.108 M479.766,225.817v107.642 M559.757,359.025V389.2 M317.481,302.187l0.219-42.245 M228.383,272.891v-39.063
			 M260.534,282.766l28.418,9.767l0.11-40.93 M181.969,257.089v36.759l23.262,9.108v-37.855L181.969,257.089v-36.758
			 M205.231,227.023v38.077l23.152,7.79v39.28l-23.152-9.215 M166.498,299.773l-1.756-84.49 M742.124,277.389v23.262
			 M668.059,203.323h-17.668 M608.586,299.992l-24.141,11.193v-35.991v-35.991l24.141-9.437l24.14-9.436v34.233v34.346
			L608.586,299.992V264.88l-24.141,10.314 M632.726,254.564l-24.14,10.315v-35.113"/>
	</g>
</g>
</svg>
